src/icons/cloudwatch-config.svg

<?xml version="1.0" encoding="UTF-8"?>
<svg xmlns="http://www.w3.org/2000/svg" xmlns:xlink="http://www.w3.org/1999/xlink" width="24" height="32" viewBox="0 0 24 32" version="1.1">
<g id="surface1">
<path style=" stroke:none;fill-rule:evenodd;fill:rgb(29.411766%,38.039216%,17.254902%);fill-opacity:1;" d="M 7.492188 10.539062 L 0 10.539062 L 0 18.902344 L 7.492188 18.902344 L 11.175781 22.421875 L 24 22.421875 L 24 14.054688 L 11.175781 14.054688 Z M 11.175781 23.425781 L 7.492188 19.910156 L 0 19.910156 L 0 32 L 24 32 L 24 23.425781 Z M 11.175781 4.761719 L 7.492188 1.246094 L 0 1.246094 L 0 9.535156 L 7.492188 9.535156 L 11.175781 13.050781 L 24 13.050781 L 24 4.761719 Z M 11.175781 4.761719 "/>
<path style=" stroke:none;fill-rule:evenodd;fill:rgb(45.882353%,61.176473%,24.313726%);fill-opacity:1;" d="M 7.492188 9.292969 L 0 9.292969 L 0 17.65625 L 7.492188 17.65625 L 11.175781 21.175781 L 24 21.175781 L 24 12.808594 L 11.175781 12.808594 Z M 11.175781 22.179688 L 7.492188 18.664062 L 0 18.664062 L 0 30.753906 L 24 30.753906 L 24 22.179688 Z M 11.175781 22.179688 "/>
<path style=" stroke:none;fill-rule:evenodd;fill:rgb(100%,100%,100%);fill-opacity:1;" d="M 16.523438 26.371094 L 17.789062 25.074219 L 20.339844 27.683594 L 19.074219 28.980469 Z M 16.523438 26.371094 "/>
<path style=" stroke:none;fill-rule:evenodd;fill:rgb(100%,100%,100%);fill-opacity:1;" d="M 17.835938 27.710938 L 21.921875 23.53125 L 23.167969 24.804688 L 19.082031 28.980469 Z M 16.523438 17.003906 L 17.792969 15.707031 L 20.34375 18.316406 L 19.074219 19.613281 Z M 16.523438 17.003906 "/>
<path style=" stroke:none;fill-rule:evenodd;fill:rgb(100%,100%,100%);fill-opacity:1;" d="M 17.835938 18.339844 L 21.925781 14.164062 L 23.167969 15.4375 L 19.082031 19.613281 Z M 17.835938 18.339844 "/>
<path style=" stroke:none;fill-rule:evenodd;fill:rgb(45.882353%,61.176473%,24.313726%);fill-opacity:1;" d="M 11.175781 3.515625 L 7.492188 0 L 0 0 L 0 8.289062 L 7.492188 8.289062 L 11.175781 11.804688 L 24 11.804688 L 24 3.515625 Z M 11.175781 3.515625 "/>
<path style=" stroke:none;fill-rule:evenodd;fill:rgb(100%,100%,100%);fill-opacity:1;" d="M 17.179688 8.929688 L 21.269531 4.753906 L 22.511719 6.023438 L 18.425781 10.203125 Z M 17.179688 8.929688 "/>
<path style=" stroke:none;fill-rule:evenodd;fill:rgb(100%,100%,100%);fill-opacity:1;" d="M 17.179688 6.019531 L 18.421875 4.75 L 22.507812 8.925781 L 21.265625 10.199219 Z M 17.179688 6.019531 "/>
</g>
</svg>

<svg xmlns="http://www.w3.org/2000/svg" width="24" height="32" stroke="#000" stroke-linecap="round" stroke-linejoin="round" fill="#fff" fill-rule="evenodd"><path d="M7.4905 10.5394H0v8.3642h7.4905l3.6862 3.5165H24v-8.3642H11.1767l-3.6862-3.5165zm3.6862 12.8854l-3.6862-3.5165H0v7.5956 3.0744V32h24v-1.4217-3.0744-4.0791H11.1767zm0-18.6625L7.4905 1.2458H0v8.2889h7.4905l3.6862 3.5164H24V4.7623H11.1767z" fill="#4b612c" stroke="none"/><path d="M7.4905 9.2936H0v8.3642h7.4905l3.6862 3.5165H24v-8.3642H11.1767L7.4905 9.2936zm3.6862 12.8854l-3.6862-3.5165H0v7.5956 3.0744 1.4217h24v-1.4217-3.0744-4.0791H11.1767z" stroke="none" fill="#759c3e"/><path d="M16.5222 26.372l1.2685-1.2965 2.551 2.6073-1.2686 1.2965z" stroke="none"/><path d="M17.8362 27.7091l4.0871-4.1774 1.2442 1.2717-4.0871 4.1773zm-1.3128-10.7048l1.2685-1.2965 2.551 2.6073-1.2685 1.2965z" stroke="none"/><path d="M17.8374 18.3412l4.0871-4.1773 1.2442 1.2717-4.0871 4.1773z" stroke="none"/><path d="M11.1767 3.5165L7.4905 0H0v8.2889h7.4905l3.6862 3.5164H24V3.5165H11.1767z" fill="#759c3e" stroke="none"/><path d="M17.1815 8.9304l4.0871-4.1774 1.2442 1.2717-4.0871 4.1773z" stroke="none"/><path d="M17.178 6.0212l1.2442-1.2717 4.0871 4.1774-1.2442 1.2716z" stroke="none"/></svg>
